svg/icon/bix.svg

<svg xmlns="http://www.w3.org/2000/svg" xmlns:xlink="http://www.w3.org/1999/xlink" width="32" height="32" viewBox="0 0 32 32"><defs><linearGradient id="bix-c" x1="50%" x2="50%" y1="0%" y2="100%"><stop offset="0%" stop-color="#FFF" stop-opacity=".5"/><stop offset="100%" stop-opacity=".5"/></linearGradient><circle id="bix-b" cx="16" cy="15" r="15"/><filter id="bix-a" width="111.7%" height="111.7%" x="-5.8%" y="-4.2%" filterUnits="objectBoundingBox"><feOffset dy=".5" in="SourceAlpha" result="shadowOffsetOuter1"/><feGaussianBlur in="shadowOffsetOuter1" result="shadowBlurOuter1" stdDeviation=".5"/><feComposite in="shadowBlurOuter1" in2="SourceAlpha" operator="out" result="shadowBlurOuter1"/><feColorMatrix in="shadowBlurOuter1" values="0 0 0 0 0 0 0 0 0 0 0 0 0 0 0 0 0 0 0.199473505 0"/></filter><path id="bix-e" d="M16.9413314,23.5772755 C16.9927303,23.6988027 17.0211082,23.832122 17.0211082,23.9719626 C17.0211082,24.539732 16.5533107,25 15.9762533,25 C15.3991959,25 14.9313984,24.539732 14.9313984,23.9719626 C14.9313984,23.8359991 14.9582246,23.7062004 15.0069533,23.5874108 L8.7964015,20.0599907 C8.60640328,20.2534991 8.33991157,20.3738318 8.04485488,20.3738318 C7.46779746,20.3738318 7,19.9135638 7,19.3457944 C7,18.8667702 7.33298814,18.4642678 7.78364116,18.3501447 L7.78364116,11.3227525 C7.33298814,11.2086294 7,10.806127 7,10.3271028 C7,9.75933343 7.46779746,9.29906542 8.04485488,9.29906542 C8.39134365,9.29906542 8.69844104,9.46500542 8.88853215,9.72051978 L14.9608941,6.27158773 C14.9416161,6.1935115 14.9313984,6.11194847 14.9313984,6.02803738 C14.9313984,5.46026801 15.3991959,5 15.9762533,5 C16.5533107,5 17.0211082,5.46026801 17.0211082,6.02803738 C17.0211082,6.10967864 17.0114358,6.18909714 16.993157,6.26524409 L23.1012639,9.73447826 C23.2904577,9.47106527 23.6023865,9.29906542 23.9551451,9.29906542 C24.5322025,9.29906542 25,9.75933343 25,10.3271028 C25,10.8072664 24.6654258,11.2105438 24.2131409,11.323562 L24.1946352,18.3448885 C24.6562696,18.4514057 25,18.8591049 25,19.3457944 C25,19.9135638 24.5322025,20.3738318 23.9551451,20.3738318 C23.6472503,20.3738318 23.3704602,20.2427997 23.179236,20.0343199 L16.9413314,23.5772755 Z M16.6620514,23.1963394 L22.949376,19.6253146 C22.9239127,19.5364403 22.9102902,19.4426826 22.9102902,19.3457944 C22.9102902,19.2256396 22.9312408,19.1102994 22.9697438,19.003117 L16.9038116,15.1035489 C16.6783751,15.3417067 16.3568664,15.4906542 16,15.4906542 C15.6013233,15.4906542 15.2467745,15.3047608 15.0210061,15.0162639 L9.04355767,19.0427018 C9.07355905,19.1385125 9.08970976,19.2402977 9.08970976,19.3457944 C9.08970976,19.455004 9.0724022,19.5602363 9.04033862,19.6589808 L15.281717,23.2039095 C15.4663264,23.0421856 15.7096272,22.9439252 15.9762533,22.9439252 C16.2386934,22.9439252 16.4785349,23.0391244 16.6620514,23.1963394 Z M16.780693,6.68412984 C16.6417244,6.8488955 16.451462,6.97027463 16.2340026,7.02455816 L16.2180436,13.0796289 C16.7960254,13.1809468 17.2348285,13.6779047 17.2348285,14.2757009 C17.2348285,14.4274928 17.2065367,14.5727831 17.1548584,14.7067455 L23.2258745,18.6095818 C23.3604226,18.4805376 23.5302146,18.3868987 23.719702,18.3439631 L23.7381805,11.332947 C23.2652468,11.2346792 22.9102902,10.8216761 22.9102902,10.3271028 C22.9102902,10.2744702 22.9143102,10.2227614 22.9220646,10.1722574 L16.780693,6.68412984 Z M15.1759488,6.68900208 L9.07499117,10.1541757 C9.08466992,10.2103969 9.08970976,10.2681708 9.08970976,10.3271028 C9.08970976,10.8228063 8.73312895,11.2365664 8.2585752,11.3336158 L8.2585752,18.3392814 C8.47075309,18.3826732 8.65934728,18.4893778 8.80303083,18.6384117 L14.8078536,14.5935343 C14.7800206,14.4922257 14.7651715,14.3856695 14.7651715,14.2757009 C14.7651715,13.6913792 15.184416,13.2034012 15.7430883,13.0870797 L15.7590425,7.03383042 C15.526889,6.98553494 15.3231783,6.86139655 15.1759488,6.68900208 Z"/><filter id="bix-d" width="119.4%" height="117.5%" x="-9.7%" y="-6.2%" filterUnits="objectBoundingBox"><feOffset dy=".5" in="SourceAlpha" result="shadowOffsetOuter1"/><feGaussianBlur in="shadowOffsetOuter1" result="shadowBlurOuter1" stdDeviation=".5"/><feColorMatrix in="shadowBlurOuter1" values="0 0 0 0 0 0 0 0 0 0 0 0 0 0 0 0 0 0 0.204257246 0"/></filter></defs><g fill="none" fill-rule="evenodd"><use fill="#000" filter="url(#bix-a)" xlink:href="#bix-b"/><use fill="#272727" xlink:href="#bix-b"/><use fill="url(#bix-c)" style="mix-blend-mode:soft-light" xlink:href="#bix-b"/><circle cx="16" cy="15" r="14.5" stroke="#000" stroke-opacity=".097"/><g fill-rule="nonzero"><use fill="#000" filter="url(#bix-d)" xlink:href="#bix-e"/><use fill="#FFF" fill-rule="evenodd" xlink:href="#bix-e"/></g></g></svg>

<svg xmlns="http://www.w3.org/2000/svg" xmlns:xlink="http://www.w3.org/1999/xlink" width="32" height="32" viewBox="0 0 32 32"><defs><linearGradient id="c" x1="50%" x2="50%" y1="0%" y2="100%"><stop offset="0%" stop-color="#FFF" stop-opacity=".5"/><stop offset="100%" stop-opacity=".5"/></linearGradient><circle id="b" cx="16" cy="15" r="15"/><filter id="a" width="111.7%" height="111.7%" x="-5.8%" y="-4.2%" filterUnits="objectBoundingBox"><feOffset dy=".5" in="SourceAlpha" result="shadowOffsetOuter1"/><feGaussianBlur in="shadowOffsetOuter1" result="shadowBlurOuter1" stdDeviation=".5"/><feComposite in="shadowBlurOuter1" in2="SourceAlpha" operator="out" result="shadowBlurOuter1"/><feColorMatrix in="shadowBlurOuter1" values="0 0 0 0 0 0 0 0 0 0 0 0 0 0 0 0 0 0 0.199473505 0"/></filter><path id="e" d="M16.941 23.577c.052.122.08.255.08.395 0 .568-.468 1.028-1.045 1.028s-1.045-.46-1.045-1.028c0-.136.027-.266.076-.385l-6.21-3.527a1.05 1.05 0 0 1-.752.314c-.577 0-1.045-.46-1.045-1.028 0-.48.333-.882.784-.996v-7.027A1.032 1.032 0 0 1 7 10.327C7 9.76 7.468 9.3 8.045 9.3c.346 0 .653.166.844.422l6.072-3.45a.975.975 0 0 1-.03-.243C14.931 5.46 15.4 5 15.976 5a1.037 1.037 0 0 1 1.017 1.265l6.108 3.47c.19-.264.501-.436.854-.436.577 0 1.045.46 1.045 1.028 0 .48-.335.884-.787.997l-.018 7.02c.461.107.805.515.805 1.002 0 .568-.468 1.028-1.045 1.028a1.05 1.05 0 0 1-.776-.34l-6.238 3.543zm-.279-.38l6.287-3.572a1.013 1.013 0 0 1 .02-.622l-6.065-3.9a1.24 1.24 0 0 1-.904.388 1.24 1.24 0 0 1-.979-.475l-5.977 4.027a1.013 1.013 0 0 1-.004.616l6.242 3.545a1.05 1.05 0 0 1 .694-.26c.263 0 .503.095.686.252zm.119-16.513a1.05 1.05 0 0 1-.547.34l-.016 6.056a1.221 1.221 0 0 1 1.017 1.196c0 .151-.028.297-.08.43l6.07 3.904c.135-.13.305-.223.495-.266l.018-7.011a1.033 1.033 0 0 1-.816-1.16l-6.141-3.489zm-1.605.005l-6.101 3.465a1.033 1.033 0 0 1-.816 1.18v7.005c.212.044.4.15.544.3l6.005-4.045a1.22 1.22 0 0 1 .935-1.506l.016-6.054a1.047 1.047 0 0 1-.583-.345z"/><filter id="d" width="119.4%" height="117.5%" x="-9.7%" y="-6.2%" filterUnits="objectBoundingBox"><feOffset dy=".5" in="SourceAlpha" result="shadowOffsetOuter1"/><feGaussianBlur in="shadowOffsetOuter1" result="shadowBlurOuter1" stdDeviation=".5"/><feColorMatrix in="shadowBlurOuter1" values="0 0 0 0 0 0 0 0 0 0 0 0 0 0 0 0 0 0 0.204257246 0"/></filter></defs><g fill="none" fill-rule="evenodd"><use fill="#000" filter="url(#a)" xlink:href="#b"/><use fill="#272727" xlink:href="#b"/><use fill="url(#c)" style="mix-blend-mode:soft-light" xlink:href="#b"/><circle cx="16" cy="15" r="14.5" stroke="#000" stroke-opacity=".097"/><g fill-rule="nonzero"><use fill="#000" filter="url(#d)" xlink:href="#e"/><use fill="#FFF" fill-rule="evenodd" xlink:href="#e"/></g></g></svg>
